X: 70
T:Boys of the Lough
R:Reel
S:Boys of the Lough Book
Z:Added by alf.warnock@rogers.com
M:4/4
L:1/8
K:D
dB|AF ~F2 A2AB|defd efdB|AF ~F2 ABAF|EDEFE2 DF|
AF ~F2 A2AB|defd efdB|AF ~F2 BdAF|EDEFD2:|
de|faag fgfe|dBBA GBdB|AF ~F2 ABde|fdgfe2 fg|
a2ag fgfe|dBBA GBdB|AF ~F2ABAF|EDEFD2:|

